X: 1
T: the Adirondack
C: Ethan Hazzard-Watkins (2007)
%D:2007
S: Handout at Roaring Jelly practice 2020-1-28
R: reel
Z: 2020 John Chambers <jc:trillian.mit.edu>
M: C|
L: 1/8
K: A
|:\
"A"c3B- BAFA | EFAB A2BA | c3B- BABc | "D"d2cd "E"B2AB |
"A"c3B- BAFA | "F#m"EFAB A2FE | "Bm"FBBc dcBA |[1  "E7"EBBc dcBd :|[2 "E7"EBBc d2 ||
|: cB |\
"A"A2af ecef | afec "E"B3c | "A"A2af ecef | aAgA "D"f3g |
"A"a2af e2cB | "F#m"AcBA F3E | "Bm"FBBc dcBA [1 | "E7"EBBc d2 :|[2 "E7"EBBc dcBd |]
